Obsidian-SemiLight/actions/24s/text_letter_spacing.svg

<svg viewBox="0 0 24 24" xmlns="http://www.w3.org/2000/svg"><path d="m4 4v2 1 2 1h1 2c1.108 0 2-.892 2-2 0-.81094-.481265-1.5018963-1.171875-1.8164062.10595-.2058501.171875-.4352838.171875-.6835938 0-.831-.669-1.5-1.5-1.5h-1.5zm11 0v6h2 1c1.10801 0 2-.89199 2-2v-2c0-1.10801-.89199-2-2-2h-1zm-10 1h1.5c.277 0 .5.223.5.5s-.223.5-.5.5h-1.5zm11 0h1 1c.55401 0 1 .44599 1 1v2c0 .55401-.44599 1-1 1h-1-1zm-11 2h1.5.5c.554 0 1 .446 1 1s-.446 1-1 1h-2zm6 0v1h2v-1zm-6 6v1h2v-1zm4 0v1h2v-1zm4 0v1h2v-1zm4 0v1h2v-1zm-11 3-2 2 2 2zm12 0v4l2-2zm-6 1c-.554 0-1 .446-1 1s.446 1 1 1 1-.446 1-1-.446-1-1-1z" fill="#4d4d4d"/></svg>

<svg xmlns="http://www.w3.org/2000/svg" viewBox="0 0 24 24">
  <defs id="defs3051">
    <style type="text/css" id="current-color-scheme">
      .ColorScheme-Text {
        color:#4d4d4d;
      }
      </style>
  </defs>
 <path style="fill:currentColor;fill-opacity:1;stroke:none" 
     d="M 4 4 L 4 6 L 4 7 L 4 9 L 4 10 L 5 10 L 7 10 C 8.108 10 9 9.108 9 8 C 9 7.18906 8.518735 6.4981037 7.828125 6.1835938 C 7.934075 5.9777437 8 5.74831 8 5.5 C 8 4.669 7.331 4 6.5 4 L 5 4 L 4 4 z M 15 4 L 15 10 L 17 10 L 18 10 C 19.10801 10 20 9.10801 20 8 L 20 6 C 20 4.89199 19.10801 4 18 4 L 17 4 L 15 4 z M 5 5 L 6.5 5 C 6.777 5 7 5.223 7 5.5 C 7 5.777 6.777 6 6.5 6 L 5 6 L 5 5 z M 16 5 L 17 5 L 18 5 C 18.55401 5 19 5.44599 19 6 L 19 8 C 19 8.55401 18.55401 9 18 9 L 17 9 L 16 9 L 16 5 z M 5 7 L 6.5 7 L 7 7 C 7.554 7 8 7.446 8 8 C 8 8.554 7.554 9 7 9 L 5 9 L 5 7 z M 11 7 L 11 8 L 13 8 L 13 7 L 11 7 z M 5 13 L 5 14 L 7 14 L 7 13 L 5 13 z M 9 13 L 9 14 L 11 14 L 11 13 L 9 13 z M 13 13 L 13 14 L 15 14 L 15 13 L 13 13 z M 17 13 L 17 14 L 19 14 L 19 13 L 17 13 z M 6 16 L 4 18 L 6 20 L 6 16 z M 18 16 L 18 20 L 20 18 L 18 16 z M 12 17 C 11.446 17 11 17.446 11 18 C 11 18.554 11.446 19 12 19 C 12.554 19 13 18.554 13 18 C 13 17.446 12.554 17 12 17 z "
     class="ColorScheme-Text"
     />
</svg>
